X: 103
T: Mr Davidson of Cantray's Strathspey
B: John Pringle "Collection of Reels Strathspeys & Jigs", 1801 p.10#3
Z: 2011 John Chambers <jc:trillian.mit.edu>
Q: "Slow"
R: strathspey
M: C
L: 1/8
K: D
V: 1
F/E/ | D<~B,B,>D ~A,2A,B, | D>BAF ~FE~EF | D<B,~B,>D A,B,DB | F<D~EF D3 :|
A | d>ABd ABFD | TEDEF DB,B,c | d>AB>d ABFd | TEDEF D2D |
d | {c}B>ABd Te>def | {e}d>BA>F FE~EF | D<B,~B,D A,2dB | A<FE>F D3 |]
V: 2 clef=bass middle=d
z | G2G2 F2F2 | D2d2 A2A2 | G2G2 f2d2 | a2A2 f2f :|
z | d2g2 f2d2 | A2A2 G2g2 | f2g2 f2d2 | A2A2 d2D ||
z | g2G2 a2A2 | d2d2 A2A2 | G2G2 F2F2 | d2A2 D2d |]

%%sep 2 1 500

